X: 40053
T: Throw Away The Keys
R: reel
M: 4/4
K: Dmajor
~A3B defg|a2fd edBd|~A3B defe|dBAF EFD2:|
~a3f defg|a2fd edBd|~a3f defe|dBAF EFD2|
~a3f defg|a2fd edBd|~A3B defe|dBAF EFD2||

